X: 1
T:September 11, 2001
C:Mark Johnson
S:Mark Johnson <osteon@EARTHLINK.NET> irtrad-l 2001-9-19
M:4/4
L:1/8
Q:50
K:Gm
T:Lament for the dead
cd|:e2 c2 c2 B2|cdcB G2 GB|c2 G2 GFEF|G2 GB G2 cd|e2 c2 c2 B2|
edef g2 gb|g3 c c2 B2|c6 ef|g2 gf g2 ef|gfgb c'2 bg|f2 fe f2 fb|
g6 gf|e2 c2 c2 B2|cdcB G2 GF|E3 C C2 B,2|1 C6 cd:|2 C6 z2|]
